src/components/AppIcon/assets/app-settings.svg

<svg width="24" height="24" viewBox="0 0 24 24" fill="none" xmlns="http://www.w3.org/2000/svg">
<rect width="24" height="24" fill="#C8D7EA"/>
<path fill-rule="evenodd" clip-rule="evenodd" d="M18.9562 11.2227C18.9341 11.0259 18.7046 10.8781 18.5062 10.8781C17.8647 10.8781 17.2954 10.5014 17.0567 9.91886C16.8128 9.32222 16.9701 8.6264 17.4481 8.18786C17.5986 8.05028 17.6169 7.81999 17.4907 7.66003C17.1624 7.2431 16.7892 6.86648 16.3817 6.54009C16.2222 6.41205 15.9881 6.42986 15.8497 6.58306C15.4325 7.04515 14.683 7.21689 14.1038 6.97525C13.5011 6.72173 13.1211 6.11102 13.1583 5.45547C13.1705 5.24955 13.02 5.07052 12.8147 5.04661C12.2918 4.98613 11.7643 4.98426 11.2399 5.04244C11.0369 5.06484 10.8864 5.23966 10.8933 5.44296C10.9161 6.09206 10.5314 6.69209 9.93474 6.93649C9.36251 7.17022 8.61828 6.99994 8.20186 6.54196C8.06424 6.39111 7.83394 6.37257 7.6736 6.49753C7.25406 6.82669 6.87249 7.20361 6.54114 7.6171C6.4119 7.77785 6.43091 8.01085 6.58291 8.14915C7.07012 8.59036 7.22744 9.29222 6.97433 9.89573C6.73268 10.4711 6.13519 10.842 5.45117 10.842C5.22921 10.8348 5.07112 10.9838 5.04684 11.1856C4.98527 11.7115 4.98454 12.2473 5.04382 12.7775C5.0658 12.9751 5.30225 13.1217 5.50285 13.1217C6.11242 13.1062 6.69767 13.4835 6.94318 14.081C7.1879 14.6776 7.03059 15.373 6.55176 15.8119C6.402 15.9495 6.38299 16.1794 6.5092 16.3394C6.83446 16.7537 7.2077 17.1306 7.61662 17.4597C7.77701 17.589 8.01038 17.5707 8.14941 17.4176C8.56822 16.9543 9.31766 16.7829 9.89452 17.025C10.4987 17.2777 10.8788 17.8884 10.8416 18.5443C10.8295 18.7503 10.9807 18.9297 11.1851 18.9532C11.4526 18.9844 11.7217 19 11.9916 19C12.2477 19 12.5039 18.9859 12.76 18.9574C12.963 18.935 13.1134 18.7602 13.1066 18.5566C13.0831 17.9078 13.4684 17.3078 14.0643 17.0638C14.6404 16.8285 15.3815 17.0007 15.798 17.4582C15.9364 17.6088 16.1651 17.627 16.3263 17.5024C16.7451 17.174 17.1259 16.7974 17.4588 16.3828C17.588 16.2224 17.5697 15.989 17.4169 15.8508C16.9297 15.4096 16.7716 14.7076 17.0247 14.1045C17.2627 13.5368 17.838 13.1556 18.4568 13.1556L18.5434 13.1578C18.7441 13.1741 18.9287 13.0195 18.9531 12.8147C19.0147 12.2883 19.0155 11.7529 18.9562 11.2227ZM12.0111 14.3497C10.7235 14.3497 9.67616 13.3024 9.67616 12.0148C9.67616 10.7273 10.7235 9.67992 12.0111 9.67992C13.2986 9.67992 14.346 10.7273 14.346 12.0148C14.346 13.3024 13.2986 14.3497 12.0111 14.3497Z" fill="white"/>
</svg>

<svg width="24" height="24" fill="none" xmlns="http://www.w3.org/2000/svg"><path fill="#C8D7EA" d="M0 0h24v24H0z"/><path fill-rule="evenodd" clip-rule="evenodd" d="M18.956 11.223c-.022-.197-.251-.345-.45-.345-.641 0-1.21-.377-1.45-.96a1.56 1.56 0 0 1 .392-1.73.389.389 0 0 0 .043-.528 6.924 6.924 0 0 0-1.11-1.12.39.39 0 0 0-.531.043c-.418.462-1.167.634-1.746.392a1.555 1.555 0 0 1-.946-1.52.388.388 0 0 0-.343-.408 6.989 6.989 0 0 0-1.575-.005.39.39 0 0 0-.347.401c.023.65-.362 1.25-.958 1.493-.572.234-1.317.064-1.733-.394a.39.39 0 0 0-.528-.044c-.42.329-.802.706-1.133 1.12a.39.39 0 0 0 .042.531c.487.441.644 1.143.391 1.747-.241.575-.839.946-1.523.946a.38.38 0 0 0-.404.344 7.012 7.012 0 0 0-.003 1.591c.022.198.258.345.459.345a1.535 1.535 0 0 1 1.44.959 1.556 1.556 0 0 1-.391 1.73.39.39 0 0 0-.043.528 6.95 6.95 0 0 0 1.108 1.12.39.39 0 0 0 .532-.041c.42-.464 1.169-.635 1.746-.393.604.253.984.863.947 1.52a.389.389 0 0 0 .343.408 6.96 6.96 0 0 0 1.575.004.39.39 0 0 0 .347-.4 1.556 1.556 0 0 1 .957-1.493c.576-.236 1.318-.063 1.734.394.138.15.367.169.528.044a6.97 6.97 0 0 0 1.133-1.12.389.389 0 0 0-.042-.531 1.551 1.551 0 0 1-.392-1.747 1.567 1.567 0 0 1 1.432-.948l.086.002a.39.39 0 0 0 .41-.343 7.01 7.01 0 0 0 .003-1.592zm-6.945 3.127a2.337 2.337 0 0 1-2.335-2.335 2.337 2.337 0 0 1 2.335-2.335 2.337 2.337 0 0 1 2.335 2.335 2.337 2.337 0 0 1-2.335 2.335z" fill="#fff"/></svg>
